svgs/solid/chart-candlestick.svg

<svg xmlns="http://www.w3.org/2000/svg" viewBox="0 0 512 512"><!-- Font Awesome Pro 6.0.0-alpha2 by @fontawesome - https://fontawesome.com License - https://fontawesome.com/license (Commercial License) --><path d="M400 320H416V368C416 376.836 423.164 384 432 384C440.838 384 448 376.836 448 368V320H464C472.838 320 480 312.836 480 304V208C480 199.162 472.838 192 464 192H448V144C448 135.162 440.838 128 432 128C423.164 128 416 135.162 416 144V192H400C391.164 192 384 199.162 384 208V304C384 312.836 391.164 320 400 320ZM272 256H288V304C288 312.836 295.164 320 304 320C312.838 320 320 312.836 320 304V256H336C344.838 256 352 248.836 352 240V112C352 103.162 344.838 96 336 96H320V48C320 39.162 312.838 32 304 32C295.164 32 288 39.162 288 48V96H272C263.164 96 256 103.162 256 112V240C256 248.836 263.164 256 272 256ZM480 416H64V64C64 46.327 49.673 32 32 32H32C14.327 32 0 46.327 0 64V448C0 465.6 14.4 480 32 480H480C497.673 480 512 465.673 512 448V448C512 430.327 497.673 416 480 416ZM144 320H160V368C160 376.836 167.164 384 176 384C184.838 384 192 376.836 192 368V320H208C216.838 320 224 312.836 224 304V144C224 135.162 216.838 128 208 128H192V80C192 71.162 184.838 64 176 64C167.164 64 160 71.162 160 80V128H144C135.164 128 128 135.162 128 144V304C128 312.836 135.164 320 144 320Z"/></svg>

<svg xmlns="http://www.w3.org/2000/svg" viewBox="0 0 512 512"><!--! Font Awesome Pro 6.4.0 by @fontawesome - https://fontawesome.com License - https://fontawesome.com/license (Commercial License) Copyright 2023 Fonticons, Inc. --><path d="M64 64c0-17.7-14.3-32-32-32S0 46.3 0 64V400c0 44.2 35.8 80 80 80H480c17.7 0 32-14.3 32-32s-14.3-32-32-32H80c-8.8 0-16-7.2-16-16V64zM320 48c0-8.8-7.2-16-16-16s-16 7.2-16 16V96c-17.7 0-32 14.3-32 32v96c0 17.7 14.3 32 32 32v48c0 8.8 7.2 16 16 16s16-7.2 16-16V256c17.7 0 32-14.3 32-32V128c0-17.7-14.3-32-32-32V48zm64 176v64c0 17.7 14.3 32 32 32v48c0 8.8 7.2 16 16 16s16-7.2 16-16V320c17.7 0 32-14.3 32-32V224c0-17.7-14.3-32-32-32V144c0-8.8-7.2-16-16-16s-16 7.2-16 16v48c-17.7 0-32 14.3-32 32zM160 128c-17.7 0-32 14.3-32 32V288c0 17.7 14.3 32 32 32v48c0 8.8 7.2 16 16 16s16-7.2 16-16V320c17.7 0 32-14.3 32-32V160c0-17.7-14.3-32-32-32V80c0-8.8-7.2-16-16-16s-16 7.2-16 16v48z"/></svg>
